public/img/steam.svg

<svg xmlns="http://www.w3.org/2000/svg" viewBox="0 0 16 16">
  <title>
    steam
  </title>
  <path fill-rule="evenodd" d="M7.986 0C3.784 0 .34 3.24.014 7.358L4.302 9.13c.363-.247.802-.393 1.274-.393.042 0 .084.002.126.004L7.61 5.98v-.04c0-1.663 1.352-3.016 3.016-3.016 1.663 0 3.017 1.354 3.017 3.018 0 1.664-1.354 3.017-3.017 3.017h-.07L7.838 10.9c0 .034.003.07.003.106 0 1.25-1.01 2.264-2.26 2.264-1.095 0-2.012-.782-2.22-1.818L.29 10.18C1.24 13.538 4.323 16 7.985 16c4.418 0 8-3.582 8-8s-3.582-8-8-8zm-2.96 12.14l-.982-.407c.175.362.476.666.876.833.865.36 1.862-.05 2.222-.916.175-.42.176-.88.003-1.3-.173-.42-.5-.747-.918-.922-.416-.173-.86-.166-1.252-.02l1.015.42c.638.267.94 1 .673 1.637-.265.638-.998.94-1.636.674zm7.61-6.202c0-1.108-.902-2.01-2.01-2.01-1.11 0-2.01.902-2.01 2.01 0 1.11.9 2.01 2.01 2.01 1.108 0 2.01-.9 2.01-2.01zM9.12 5.935c0-.835.675-1.51 1.51-1.51.833 0 1.51.675 1.51 1.51 0 .834-.677 1.51-1.51 1.51-.835 0-1.51-.676-1.51-1.51z"/>
</svg>

<?xml version="1.0" encoding="UTF-8" standalone="no"?>
<svg width="16px" height="16px" viewBox="0 0 16 16" version="1.1" xmlns="http://www.w3.org/2000/svg" xmlns:xlink="http://www.w3.org/1999/xlink">
    <!-- Generator: Sketch 41.2 (35397) - http://www.bohemiancoding.com/sketch -->
    <title>steam</title>
    <desc>Created with Sketch.</desc>
    <defs></defs>
    <g id="Page-1" stroke="none" stroke-width="1" fill="none" fill-rule="evenodd">
        <g id="steam" fill="#000000">
            <path d="M7.986,0 C3.784,0 0.34,3.24 0.014,7.358 L4.302,9.13 C4.665,8.883 5.104,8.737 5.576,8.737 C5.618,8.737 5.66,8.739 5.702,8.741 L7.61,5.978 L7.61,5.938 C7.61,4.275 8.962,2.922 10.626,2.922 C12.289,2.922 13.643,4.276 13.643,5.94 C13.643,7.604 12.289,8.957 10.626,8.957 L10.556,8.957 L7.838,10.897 C7.838,10.932 7.841,10.967 7.841,11.004 C7.841,12.254 6.826,13.268 5.577,13.268 C4.481,13.268 3.564,12.486 3.357,11.45 L0.29,10.18 C1.24,13.538 4.323,16 7.985,16 C12.403,16 15.985,12.418 15.985,8 C15.985,3.582 12.403,0 7.985,0 L7.986,0 Z M5.026,12.14 L4.044,11.733 C4.219,12.095 4.52,12.399 4.92,12.566 C5.785,12.926 6.782,12.516 7.142,11.65 C7.317,11.23 7.318,10.77 7.145,10.35 C6.972,9.93 6.645,9.603 6.227,9.428 C5.811,9.255 5.367,9.262 4.975,9.408 L5.99,9.828 C6.628,10.095 6.93,10.828 6.663,11.465 C6.398,12.103 5.665,12.405 5.027,12.139 L5.026,12.14 Z M12.636,5.938 C12.636,4.83 11.734,3.928 10.626,3.928 C9.516,3.928 8.616,4.83 8.616,5.938 C8.616,7.048 9.516,7.948 10.626,7.948 C11.734,7.948 12.636,7.048 12.636,5.938 Z M9.12,5.935 C9.12,5.1 9.795,4.425 10.63,4.425 C11.463,4.425 12.14,5.1 12.14,5.935 C12.14,6.769 11.463,7.445 10.63,7.445 C9.795,7.445 9.12,6.769 9.12,5.935 Z" id="Shape"></path>
        </g>
    </g>
</svg>
